X:1
T:Vergine bella
T:Vergine bella
T:Piero Benedetti
T:Source : Musiche di P.Benedetti---Libro secondo---Venetia---R.Amadino---1613. Editor : André Vierendeels (15/03/16).
T:Notes: Original clefs : C1, F4 Editorial accidentals above tha staff Figures in BC are notated in original print Composer called "Pietro" in this print Text by Francesco Petrarca (Canzoniere)
T:©
T:©
T:©
T:©
T:©
C:Piero Benedetti
Z:©
%%score 1 2
L:1/8
Q:1/4=96
M:4/4
K:F
V:1 treble nm="Soprano" snm="S"
V:2 bass nm="BC" snm="BC"
V:1
 d6 BG | B4 A4 | z2 Bc d2 B/A/G/A/ | B/c/d/e/ f2 c4 | c4 z2 dd | d6 B>A | BA/B/ A/A/A/G/ A4 | %7
w: Ver- gi- ne|bel- la|che di sol ve- * * *|* * * * * sti-|ta, co- ro-|na- ta di|stel- * * * * * * le,|
 z2 A2 d3 d | d3 c- d4 | z F A3 E E2 | z FAB c4- | c2 c/B/A/G/4F/4 G4 | F8 | z c d2- d3 G | %14
w: al som- mo|so- le, _|pia- ce- sti si|ch'in te sua lu-|* ce'a- * * * * sco-|se,|a- mor _ mi|
 ^F4 F4 | z c c3 G A2- | A2 F/G/F/G/ A/G/A/4B/4c/4B/4 B2 | G4 G4 | z4 d3 c | c2 B>A A4 | A6 F>E | %21
w: spin- ge|a dir di- te|_ pa- * * * * * * * * * *|ro- le:|ma non|so'in- co- min- ciar|sen- za tu'a-|
 E4 E4 | z ^FFF G4- | G2 d2 d/c/=B/c/ d/B/c/B/ | A/=B/c/A/ B/A/G/A/ B/G/A/G/ F/G/A/F/ | %25
w: i- ta|e di co- lui|_ ch'a- man- * * * * * * *||
"^#""^#""^#" G/F/E/F/ G/A/=B/c/ Td3 c | c3 =B A4 | G4 z2 A2 | B3 G A4 | z2 d2 _e3 c | d4 z2 GG | %31
w: * * * * * * * * * d'in|te si po-|se, in-|vo- co lei,|in- vo- co|lei che ben|
 =B2 A>G G2 G2 | z EFG A4- | AF G/A/G E4 | D8 | z2 A3 E E2 | z2 c3 G G2 | z2 EE A4 | A2 z A B3 B | %39
w: sem- pre ris- po- se,|chi la chia- mo|_ con _ _ _ fe-|de|Ver- gi- ne,|Ver- gi- ne|s'a mer- ce-|de, mi- se- ri-|
 A4 A2 FE | F3 E E4 | E3 E ^F3 F | G4 G4 | z2 Bd _e3 e |"^b" de/f/ c4 c2 | z c G4 G2 | %46
w: a'e- stre- ma d'hu-|ma- no co-|se, gia mai ti|vol- se|al mio pre- go|t'in- * * chi- na,|soc- cor- ri|
 z B _e3 dcB | c4 B4 | z2 d4 B>G | A4 A4 | z ABc d4- | d6- d/e/f/e/ | d/c/B/A/ G/F/E ^F2 G2 | A8 | %54
w: soc- cor- ri'al mi- a|guer- ra,|ben ch'io sia|ter- ra|e tu del Ciel|_ _ _ _ _|* * * * * * * * Re-|gi-|
 G8 |] %55
w: na.|
V:2
 G,,8- |"^#" G,,4 D,4 | B,8 | B,,4 F,4 | F,4 B,4 | B,2 A,G, ^F,2 G,2 |"^#" G,4 D,4 |"^#" D,8 | %8
"^#" _E,4 D,4 |"^-natural""^#" D,4 A,,4 | F,6 E,D, |"^4""^3" C,/B,,/A,,/G,,/ F,,2 B,,2 C,2 | F,,8 | %13
 F,4 _E,4 | D,8 | E,6 F,2 | F,8 | C,8 | G,8 | G,4 ^C,4 | D,4 G,,4 |"^#""^#" A,,8 | %22
"^#""^-natural" D,4 G,,4 |"^-natural" G,,8 | G,,8 | G,,6 E,2 |"^4""^#" =B,,2 C,2 D,2 D,2 | %27
"^-natural" G,,4 F,4 |"^#" G,4 D,4 |"^b" D,4 C,4 |"^-natural""^-natural" G,,4 G,,4 | %31
"^-natural" G,,4 C,4 | C,4- C,A,,=B,,^C, |"^4""^#" D,4 A,,2 A,,2 |"^#" D,8 |"^#" D,4 A,,4 | %36
 F,4 C,4 |"^#" C,4 A,,4 |"^#""^+" D,4 D,4 |"^#""^-natural" D,6 D,2 |"^#" D,4 A,,4 |"^#" A,,4 D,4 | %42
 G,4 G,,4 | G,6 _E,2 |"^4" B,,2 F,4 F,,2 | C,8 | B,2 G,2 _E,2 D,2 |"^4""^3" F,2 F,2 B,,4 | %48
 B,,2 A,,2 G,,4 |"^#" D,8 | D,4- D,D, E,^F, | G,=B,, G,,E,, D,,C,, D,,2 | F,,4 D,4 | %53
"^4""^#" D,4 D,4 | G,,8 |] %55

